assets/Abacus/Flat/abacus_flat.svg

<svg width="32" height="32" viewBox="0 0 32 32" fill="none" xmlns="http://www.w3.org/2000/svg">
<path d="M29 8H3V9H29V8ZM29 13H3V14H29V13ZM3 18H29V19H3V18ZM29 23H3V24H29V23Z" fill="#D3D3D3"/>
<path d="M8 2C4.68629 2 2 4.68629 2 8V24C2 27.3137 4.68629 30 8 30H24C27.3137 30 30 27.3137 30 24V8C30 4.68629 27.3137 2 24 2H8ZM8 4H24C26.2091 4 28 5.79086 28 8V24C28 26.2091 26.2091 28 24 28H8C5.79086 28 4 26.2091 4 24V8C4 5.79086 5.79086 4 8 4Z" fill="#FF6723"/>
<path d="M6 8C6 7.17157 6.67157 6.5 7.5 6.5C8.32843 6.5 9 7.17157 9 8C9 7.17157 9.67157 6.5 10.5 6.5C11.3284 6.5 12 7.17157 12 8C12 7.17157 12.6716 6.5 13.5 6.5C14.3284 6.5 15 7.17157 15 8C15 7.17157 15.6716 6.5 16.5 6.5C17.3284 6.5 18 7.17157 18 8V9C18 9.82843 17.3284 10.5 16.5 10.5C15.6716 10.5 15 9.82843 15 9C15 9.82843 14.3284 10.5 13.5 10.5C12.6716 10.5 12 9.82843 12 9C12 9.82843 11.3284 10.5 10.5 10.5C9.67157 10.5 9 9.82843 9 9C9 9.82843 8.32843 10.5 7.5 10.5C6.67157 10.5 6 9.82843 6 9V8ZM24.5 6.5C23.6716 6.5 23 7.17157 23 8V9C23 9.82843 23.6716 10.5 24.5 10.5C25.3284 10.5 26 9.82843 26 9V8C26 7.17157 25.3284 6.5 24.5 6.5Z" fill="#F70A8D"/>
<path d="M6 13C6 12.1716 6.67157 11.5 7.5 11.5C8.32843 11.5 9 12.1716 9 13C9 12.1716 9.67157 11.5 10.5 11.5C11.3284 11.5 12 12.1716 12 13C12 12.1716 12.6716 11.5 13.5 11.5C14.3284 11.5 15 12.1716 15 13C15 12.1716 15.6716 11.5 16.5 11.5C17.3284 11.5 18 12.1716 18 13V14C18 14.8284 17.3284 15.5 16.5 15.5C15.6716 15.5 15 14.8284 15 14C15 14.8284 14.3284 15.5 13.5 15.5C12.6716 15.5 12 14.8284 12 14C12 14.8284 11.3284 15.5 10.5 15.5C9.67157 15.5 9 14.8284 9 14C9 14.8284 8.32843 15.5 7.5 15.5C6.67157 15.5 6 14.8284 6 14V13ZM24.5 11.5C23.6716 11.5 23 12.1716 23 13V14C23 14.8284 23.6716 15.5 24.5 15.5C25.3284 15.5 26 14.8284 26 14V13C26 12.1716 25.3284 11.5 24.5 11.5Z" fill="#00A6ED"/>
<path d="M6 18C6 17.1716 6.67157 16.5 7.5 16.5C8.32843 16.5 9 17.1716 9 18C9 17.1716 9.67157 16.5 10.5 16.5C11.3284 16.5 12 17.1716 12 18C12 17.1716 12.6716 16.5 13.5 16.5C14.3284 16.5 15 17.1716 15 18C15 17.1716 15.6716 16.5 16.5 16.5C17.3284 16.5 18 17.1716 18 18V19C18 19.8284 17.3284 20.5 16.5 20.5C15.6716 20.5 15 19.8284 15 19C15 19.8284 14.3284 20.5 13.5 20.5C12.6716 20.5 12 19.8284 12 19C12 19.8284 11.3284 20.5 10.5 20.5C9.67157 20.5 9 19.8284 9 19C9 19.8284 8.32843 20.5 7.5 20.5C6.67157 20.5 6 19.8284 6 19V18ZM24.5 16.5C23.6716 16.5 23 17.1716 23 18V19C23 19.8284 23.6716 20.5 24.5 20.5C25.3284 20.5 26 19.8284 26 19V18C26 17.1716 25.3284 16.5 24.5 16.5Z" fill="#FCD53F"/>
<path d="M6 23C6 22.1716 6.67157 21.5 7.5 21.5C8.32843 21.5 9 22.1716 9 23C9 22.1716 9.67157 21.5 10.5 21.5C11.3284 21.5 12 22.1716 12 23C12 22.1716 12.6716 21.5 13.5 21.5C14.3284 21.5 15 22.1716 15 23C15 22.1716 15.6716 21.5 16.5 21.5C17.3284 21.5 18 22.1716 18 23V24C18 24.8284 17.3284 25.5 16.5 25.5C15.6716 25.5 15 24.8284 15 24C15 24.8284 14.3284 25.5 13.5 25.5C12.6716 25.5 12 24.8284 12 24C12 24.8284 11.3284 25.5 10.5 25.5C9.67157 25.5 9 24.8284 9 24C9 24.8284 8.32843 25.5 7.5 25.5C6.67157 25.5 6 24.8284 6 24V23ZM24.5 21.5C23.6716 21.5 23 22.1716 23 23V24C23 24.8284 23.6716 25.5 24.5 25.5C25.3284 25.5 26 24.8284 26 24V23C26 22.1716 25.3284 21.5 24.5 21.5Z" fill="#00D26A"/>
</svg>

<svg xmlns="http://www.w3.org/2000/svg" width="32" height="32" fill="none"><path fill="#D3D3D3" d="M29 8H3v1h26V8Zm0 5H3v1h26v-1ZM3 18h26v1H3v-1Zm26 5H3v1h26v-1Z"/><path fill="#FF6723" d="M8 2a6 6 0 0 0-6 6v16a6 6 0 0 0 6 6h16a6 6 0 0 0 6-6V8a6 6 0 0 0-6-6H8Zm0 2h16a4 4 0 0 1 4 4v16a4 4 0 0 1-4 4H8a4 4 0 0 1-4-4V8a4 4 0 0 1 4-4Z"/><path fill="#F70A8D" d="M6 8a1.5 1.5 0 1 1 3 0 1.5 1.5 0 1 1 3 0 1.5 1.5 0 0 1 3 0 1.5 1.5 0 0 1 3 0v1a1.5 1.5 0 0 1-3 0 1.5 1.5 0 0 1-3 0 1.5 1.5 0 0 1-3 0 1.5 1.5 0 1 1-3 0V8Zm18.5-1.5A1.5 1.5 0 0 0 23 8v1a1.5 1.5 0 0 0 3 0V8a1.5 1.5 0 0 0-1.5-1.5Z"/><path fill="#00A6ED" d="M6 13a1.5 1.5 0 0 1 3 0 1.5 1.5 0 0 1 3 0 1.5 1.5 0 0 1 3 0 1.5 1.5 0 0 1 3 0v1a1.5 1.5 0 0 1-3 0 1.5 1.5 0 0 1-3 0 1.5 1.5 0 0 1-3 0 1.5 1.5 0 0 1-3 0v-1Zm18.5-1.5A1.5 1.5 0 0 0 23 13v1a1.5 1.5 0 0 0 3 0v-1a1.5 1.5 0 0 0-1.5-1.5Z"/><path fill="#FCD53F" d="M6 18a1.5 1.5 0 0 1 3 0 1.5 1.5 0 0 1 3 0 1.5 1.5 0 0 1 3 0 1.5 1.5 0 0 1 3 0v1a1.5 1.5 0 0 1-3 0 1.5 1.5 0 0 1-3 0 1.5 1.5 0 0 1-3 0 1.5 1.5 0 0 1-3 0v-1Zm18.5-1.5A1.5 1.5 0 0 0 23 18v1a1.5 1.5 0 0 0 3 0v-1a1.5 1.5 0 0 0-1.5-1.5Z"/><path fill="#00D26A" d="M6 23a1.5 1.5 0 0 1 3 0 1.5 1.5 0 0 1 3 0 1.5 1.5 0 0 1 3 0 1.5 1.5 0 0 1 3 0v1a1.5 1.5 0 0 1-3 0 1.5 1.5 0 0 1-3 0 1.5 1.5 0 0 1-3 0 1.5 1.5 0 0 1-3 0v-1Zm18.5-1.5A1.5 1.5 0 0 0 23 23v1a1.5 1.5 0 0 0 3 0v-1a1.5 1.5 0 0 0-1.5-1.5Z"/></svg>
